src/lib/packages/icons/src/assets/line/diamond-exclamation.svg

<svg width="24" height="24" viewBox="0 0 24 24" fill="none" xmlns="http://www.w3.org/2000/svg">
<path d="M12 22.75C10.914 22.75 9.89399 22.3271 9.12599 21.5591L2.43995 14.874C0.855953 13.289 0.855953 10.71 2.43995 9.125L9.12599 2.43994C9.89399 1.67194 10.914 1.24902 12 1.24902C13.086 1.24902 14.106 1.67194 14.874 2.43994L21.5601 9.125C23.1441 10.71 23.1441 13.289 21.5601 14.874L14.874 21.5591C14.106 22.3271 13.086 22.75 12 22.75ZM12 2.75C11.314 2.75 10.671 3.01698 10.187 3.50098L3.50099 10.186C2.50199 11.186 2.50199 12.814 3.50099 13.814L10.187 20.499C11.156 21.469 12.845 21.469 13.814 20.499L20.5 13.814C21.499 12.814 21.499 11.186 20.5 10.186L13.814 3.50098C13.329 3.01698 12.686 2.75 12 2.75ZM12.75 12.5V8.5C12.75 8.086 12.414 7.75 12 7.75C11.586 7.75 11.25 8.086 11.25 8.5V12.5C11.25 12.914 11.586 13.25 12 13.25C12.414 13.25 12.75 12.914 12.75 12.5ZM13.02 15.5C13.02 14.948 12.573 14.5 12.02 14.5H12.01C11.458 14.5 11.0149 14.948 11.0149 15.5C11.0149 16.052 11.468 16.5 12.02 16.5C12.572 16.5 13.02 16.052 13.02 15.5Z" fill="currentColor"/>
</svg>

<svg xmlns="http://www.w3.org/2000/svg" width="24" height="24" fill="none"><path fill="currentColor" d="M12 22.75a4.037 4.037 0 0 1-2.874-1.19L2.44 14.873a4.072 4.072 0 0 1 0-5.749L9.126 2.44A4.037 4.037 0 0 1 12 1.249a4.04 4.04 0 0 1 2.874 1.19l6.686 6.686a4.072 4.072 0 0 1 0 5.749l-6.686 6.685A4.037 4.037 0 0 1 12 22.75Zm0-20c-.686 0-1.329.267-1.813.751l-6.686 6.685a2.57 2.57 0 0 0 0 3.628l6.686 6.685c.969.97 2.658.97 3.627 0l6.686-6.685a2.57 2.57 0 0 0 0-3.628l-6.686-6.685A2.55 2.55 0 0 0 12 2.75Zm.75 9.75v-4a.75.75 0 0 0-1.5 0v4a.75.75 0 0 0 1.5 0Zm.27 3a1 1 0 0 0-1-1h-.01a.996.996 0 0 0-.995 1c0 .552.453 1 1.005 1a1 1 0 0 0 1-1Z"/></svg>
